src/main/resources/icons/JavaScriptLanguageIcons/icons/fileTypes/stylelint.svg

<svg xmlns="http://www.w3.org/2000/svg" width="16" height="16" viewBox="0 0 16 16">
  <g fill="none" fill-rule="evenodd">
    <path fill="#000" fill-rule="nonzero" d="M8.09531553,14.6562039 C9.62637864,9.18125243 9.58196602,9.15651456 10.6887136,5.25275728 L10.9548495,5.40645146 C11.0994369,5.48997573 11.2177913,5.42167476 11.2177913,5.25506796 L11.2177913,3.39340777 C11.5114854,2.36481553 11.7416359,1.57000971 11.8090534,1.33102427 L13.0081262,1.33102427 L15,3.17630583 L13.6918155,4.30683981 L14.6809903,5.37631068 L8.16147573,14.6562039 C8.12960194,14.7086019 8.0852233,14.6966408 8.09531553,14.6562039 Z M8.80754854,2.85549515 C8.86643689,2.85549515 8.91451942,2.88804854 8.91451942,2.92845146 L8.91451942,3.88252427 C8.91451942,3.92282524 8.86643689,3.95558252 8.80758252,3.95558252 L7.19703883,3.95558252 C7.13784466,3.95558252 7.08989806,3.92296117 7.08989806,3.88252427 L7.08989806,2.92845146 C7.08989806,2.88818447 7.13781068,2.85549515 7.19703883,2.85549515 L8.80758252,2.85549515 L8.80754854,2.85549515 Z"/>
    <path fill="#000" fill-rule="nonzero" d="M10.7954126,1.7991068 L9.02366505,2.82192233 C9.0442233,2.85318447 9.05672816,2.88920388 9.05672816,2.92848544 L9.05672816,3.88259223 C9.05672816,3.93210194 9.03752913,3.97671845 9.0058932,4.01273786 L10.7954126,5.04581553 C10.9174029,5.11625728 11.0174757,5.05862621 11.0174757,4.91791262 L11.0174757,1.92714563 C11.0174757,1.78629612 10.9174369,1.72883495 10.7954126,1.7991068 Z M6.94762136,3.88252427 L6.94762136,2.92845146 C6.94762136,2.88937379 6.96012621,2.85335437 6.9804466,2.82209223 L5.20869903,1.7991068 C5.0867767,1.72883495 4.98680583,1.7863301 4.98680583,1.92714563 L4.98680583,4.91787864 C4.98680583,5.05855825 5.08664078,5.11632524 5.20869903,5.04564563 L6.9981165,4.01246602 C6.96665049,3.9764466 6.94758738,3.93193204 6.94758738,3.88242233 L6.94762136,3.88252427 Z"/>
    <path fill="#000" fill-rule="nonzero" d="M7.83852427,14.6562039 L7.90468447,14.6562039 C6.37385922,9.18125243 6.41793204,9.15651456 5.31128641,5.25275728 L5.0451165,5.40645146 C4.90059709,5.48997573 4.78220874,5.42167476 4.78220874,5.25506796 L4.78220874,3.39340777 C4.4884466,2.36481553 4.25839806,1.57000971 4.1907767,1.33102427 L2.99183981,1.33102427 L1,3.17630583 L2.30804854,4.30683981 L1.31887379,5.37631068 L7.83852427,14.6562039 Z"/>
    <circle cx="7.951" cy="5.464" r="1" fill="#000" fill-rule="nonzero"/>
    <circle cx="7.951" cy="8.339" r="1" fill="#000" fill-rule="nonzero"/>
    <circle cx="7.951" cy="11.215" r="1" fill="#000" fill-rule="nonzero"/>
  </g>
</svg>

<svg xmlns="http://www.w3.org/2000/svg" width="16" height="16" viewBox="0 0 16 16"><rect id="frame" width="16" height="16" fill="none"/><g fill="#000" fill-rule="nonzero"><path d="M8.095 14.656c1.531-5.475 1.487-5.5 2.594-9.403l.266.153c.144.084.263.016.263-.15V3.392c.293-1.028.524-1.823.591-2.062h1.2L15 3.176l-1.308 1.13.989 1.07-6.52 9.28c-.031.053-.076.04-.066 0zm.713-11.8c.058 0 .107.032.107.072v.955c0 .04-.049.073-.107.073H7.197c-.06 0-.107-.033-.107-.073v-.955c0-.04.048-.073.107-.073h1.61z"/><path d="M10.795 1.8L9.024 2.821c.02.031.033.067.033.106v.955c0 .05-.02.094-.051.13l1.79 1.033c.121.07.221.013.221-.128v-2.99c0-.142-.1-.2-.222-.129zM6.948 3.882v-.955c0-.039.012-.075.032-.106L5.21 1.8c-.122-.07-.222-.013-.222.128v2.99c0 .142.1.2.222.129l1.79-1.034a.196.196 0 0 1-.051-.13z"/><path d="M7.839 14.656h.066c-1.531-5.475-1.487-5.5-2.594-9.403l-.266.153c-.144.084-.263.016-.263-.15V3.392c-.294-1.028-.524-1.823-.591-2.062h-1.2L1 3.176l1.308 1.13-.99 1.07 6.52 9.28z"/><circle cx="7.951" cy="5.464" r="1"/><circle cx="7.951" cy="8.339" r="1"/><circle cx="7.951" cy="11.215" r="1"/></g></svg>
